ci/cil-object-ungroup.svg

<svg xmlns="http://www.w3.org/2000/svg" viewBox="0 0 512 512" height="1em" width="1em">
  <path fill="var(--ci-primary-color, currentColor)" d="M400 168h-72v-56h32V16h-96v32H112V16H16v96h32v152H16v96h96v-32h72v72h-32v96h96v-32h152v32h96v-96h-32V232h32v-96h-96ZM296 48h32v32h-32Zm32 248v32h-32v-32ZM48 48h32v32H48Zm32 280H48v-32h32Zm32-32v-32H80V112h32V80h152v32h32v152h-32v32Zm104 168h-32v-32h32Zm248 0h-32v-32h32Zm-32-296h32v32h-32Zm0 232h-32v32H248v-32h-32v-72h48v32h96v-96h-32v-64h72v32h32Z" class="ci-primary"/>
</svg>

<svg xmlns="http://www.w3.org/2000/svg" viewBox="0 0 512 512" height="1em" width="1em">
  <path fill="var(--ci-primary-color, currentColor)" d="M400,168H328V112h32V16H264V48H112V16H16v96H48V264H16v96h96V328h72v72H152v96h96V464H400v32h96V400H464V232h32V136H400ZM296,48h32V80H296Zm32,248v32H296V296ZM48,48H80V80H48ZM80,328H48V296H80Zm32-32V264H80V112h32V80H264v32h32V264H264v32ZM216,464H184V432h32Zm248,0H432V432h32ZM432,168h32v32H432Zm0,232H400v32H248V400H216V328h48v32h96V264H328V200h72v32h32Z" class="ci-primary"/>
</svg>
